public/avatar/shoe/135.svg

<svg xmlns:xlink="http://www.w3.org/1999/xlink" height="38.3" width="36.05" xmlns="http://www.w3.org/2000/svg"><use height="19.1" transform="translate(10.45 11.55)" width="22.05" xlink:href="#a"/><defs><g id="a" fill-rule="evenodd"><path d="M7.05 1.85q3.4 3-.3 8.1L4.8 12.3Q2.9 15-1.35 15.7q-3.9.4-7.5-.85l-2.85-1.3q-1-.35-1.3-1.2l-.2-.75q-.5-1.35.45-3l1-1.3 8.15-3.85q8.55-3.5 10.65-1.6" fill="#280103" transform="translate(13.35 3.3)"/><path d="M6.15 9.2q-1.45 1.05-2 2.6-1.5 2.25-5.2 3l-7.55-.35-3.25-1.45q-.95-.9-.7-2.8l.35-1.75 8.75-3.75Q5.55 1.2 7 2.55q2.45 2.4-.85 6.65" fill="#8e0707" transform="translate(13.35 3.3)"/><path d="M4.25 10.1Q3.5 12.25.4 13.35q-4.65 1.4-8.95-.1-5.3-1.15-3.55-4.75l.1 1.55q.7 1.75 3.25 2.65 5.9 1.75 10.5-.6L3.7 9.95l1.35-2q2.5-1.85 2.75-3.9l-.1 1.4Q7.2 7 5.5 8.25L4.25 10.1" fill="#51031f" transform="translate(13.35 3.3)"/><path d="M7 2.55Q9.65 5 5.05 8L3.7 10Q2.25 12.3.4 12.7q-3.5 1.5-9.15 0-3.55-1-3.5-3.4l.9-2.3v-.15L-3.05 4Q5.65 1.3 7 2.55" fill="#cc0303" transform="translate(13.35 3.3)"/><path d="M.7-3.3q4.95.75 5.45 2.3 2.3 4.75-.35 7.5L4.15 7.75Q1.8 12.45-2.2 12.3q-2.1.65-4-.05l-1.4-.9Q-11 11.3-12 9q-.3-1 .8-2.65l3.35-3.8L-6.3-.5Q-4.95-2.75-2-3.25L.7-3.3" fill="#21100a" transform="translate(13.35 3.3)"/><path d="m-2.6-2.25 1.8-.15Q4.05-2.7 5.75.45q.9 1.5.75 3.1-.75 2.4-3.3 4-.95 2.65-3.95 3.65-3.55 1.1-5.2.1l-.85-1.2q-1 .7-2.4.35-1.75-.15-1.8-1.75l.3-1.6 2.45-2.6 2.2-3.95q1.3-2.25 3.45-2.8" fill="#c98036" transform="translate(13.35 3.3)"/><path d="M-7.05 10.55Q-8 8.5-6.7 7.25l-.15 1.7q-.1 1.65.5 2.1l-.7-.5" fill="#21100a" transform="translate(13.35 3.3)"/><path d="m-7.25 9.55-.3-1.1q-.25-1.2.2-1.4l.55.55-.45 1.95" fill="#21100a" transform="translate(13.35 3.3)"/><path d="M2.95-1.95q1.95.7 2.6 2l-5.8-.1q-5.5-.4-3.85-1.6l1.3-.55 3.95-.25 1.8.5m-1 8.55.25-.05q1.3-.25 3.95-4.8.65 1-.15 2.5l-2.8 3.2q-2.95 5.1-7.8 3.85-.7-.2-.6-1.25l.2-1q1.65 1.25 4.4 0-.4.95.15-.2l2.4-2.25" fill="#965112" transform="translate(13.35 3.3)"/><path d="m1.2 8.8-1.75 1-.75-.05.85-.9L.2 7.7q1-1.35 3.25-2.1l1.05-.55L1.2 8.8m-8.75-.55.35 2-3.15-.15-.7-.9q1.35.75 3.5-.95" fill="#965112" transform="translate(13.35 3.3)"/><path d="M1.75 11Q.25 9.55-1.6 8.45q-3.7-2.25-5.2-.6L-8.25 6.7q-1.6-1.1-2.6-.65v-1.1q.15-1.15 1-1.2l1.15-.15q1.5.15 2.95 1.2l3-.45Q.8 4.75 3.7 8.8q-.25 1.65-1.95 2.2" fill="#660203" transform="translate(13.35 3.3)"/><path d="M1.8 10.7Q.65 9.25-1.05 8.1q-3.3-2.25-5.7-.75L-8.1 6.3q-1.6-1-2.45-.6l1.1-1.65L-8 4.2q1.55.25 2.15 1l3-.35q3.5.45 6.1 4Q3.4 10.2 1.8 10.7" fill="#cc0303" transform="translate(13.35 3.3)"/><path d="m-10.85 5.8.85.15-.6.4-.25-.55" fill="#660203" transform="translate(13.35 3.3)"/><path d="M3.2 8.95q-.25 1.35-1.4 1.55-3.5-3.15-4.9-3.65l4.85.25L3.2 8.95M-5.85 5.1l-.9 2.2-1.55-1.05-1-.5 1.5.05q.35.55 1.95-.7" fill="#51031f" transform="translate(13.35 3.3)"/><path d="M-7.05 5.1q-1.25-.75-2.3-.5l-.85.45.2-.3.9-.5q1.5-.15 2.05.85m1.45.5 1.25-.4q1.4-.4 2.5 0l.35.55-4.1-.15" fill="#fff" transform="translate(13.35 3.3)"/></g></defs></svg>

<?xml version="1.0" encoding="UTF-8" standalone="no"?>
<svg xmlns:xlink="http://www.w3.org/1999/xlink" height="38.3px" width="36.05px" xmlns="http://www.w3.org/2000/svg">
  <g transform="matrix(1.0, 0.0, 0.0, 1.0, 23.8, 14.85)">
    <use height="19.1" transform="matrix(1.0, 0.0, 0.0, 1.0, -13.35, -3.3)" width="22.05" xlink:href="#shape0"/>
  </g>
  <defs>
    <g id="shape0" transform="matrix(1.0, 0.0, 0.0, 1.0, 13.35, 3.3)">
      <path d="M7.05 1.85 Q10.45 4.85 6.75 9.95 L4.8 12.3 Q2.9 15.0 -1.35 15.7 -5.25 16.1 -8.85 14.85 L-11.7 13.55 Q-12.7 13.2 -13.0 12.35 L-13.2 11.6 Q-13.7 10.25 -12.75 8.6 L-11.75 7.3 -3.6 3.45 Q4.95 -0.05 7.05 1.85" fill="#280103" fill-rule="evenodd" stroke="none"/>
      <path d="M6.15 9.2 Q4.7 10.25 4.15 11.8 2.65 14.05 -1.05 14.8 L-8.6 14.45 -11.85 13.0 Q-12.8 12.1 -12.55 10.2 L-12.2 8.45 -3.45 4.7 Q5.55 1.2 7.0 2.55 9.45 4.95 6.15 9.2" fill="#8e0707" fill-rule="evenodd" stroke="none"/>
      <path d="M4.25 10.1 Q3.5 12.25 0.4 13.35 -4.25 14.75 -8.55 13.25 -13.85 12.1 -12.1 8.5 L-12.0 10.05 Q-11.3 11.8 -8.75 12.7 -2.85 14.45 1.75 12.1 L3.7 9.95 5.05 7.95 Q7.55 6.1 7.8 4.05 L7.7 5.45 Q7.2 7.0 5.5 8.25 L4.25 10.1" fill="#51031f" fill-rule="evenodd" stroke="none"/>
      <path d="M7.0 2.55 Q9.65 5.0 5.05 8.0 L3.7 10.0 Q2.25 12.3 0.4 12.7 -3.1 14.2 -8.75 12.7 -12.3 11.7 -12.25 9.3 L-11.35 7.0 -11.35 6.85 -3.05 4.0 Q5.65 1.3 7.0 2.55" fill="#cc0303" fill-rule="evenodd" stroke="none"/>
      <path d="M0.7 -3.3 Q5.65 -2.55 6.15 -1.0 8.45 3.75 5.8 6.5 L4.15 7.75 Q1.8 12.45 -2.2 12.3 -4.3 12.95 -6.2 12.25 L-7.6 11.35 Q-11.0 11.3 -12.0 9.0 -12.3 8.0 -11.2 6.35 L-7.85 2.55 -6.3 -0.5 Q-4.95 -2.75 -2.0 -3.25 L0.7 -3.3" fill="#21100a" fill-rule="evenodd" stroke="none"/>
      <path d="M-2.6 -2.25 L-0.8 -2.4 Q4.05 -2.7 5.75 0.45 6.65 1.95 6.5 3.55 5.75 5.95 3.2 7.55 2.25 10.2 -0.75 11.2 -4.3 12.3 -5.95 11.3 L-6.8 10.1 Q-7.8 10.8 -9.2 10.45 -10.95 10.3 -11.0 8.7 L-10.7 7.1 -8.25 4.5 -6.05 0.55 Q-4.75 -1.7 -2.6 -2.25" fill="#c98036" fill-rule="evenodd" stroke="none"/>
      <path d="M-7.05 10.55 Q-8.0 8.5 -6.7 7.25 L-6.85 8.95 Q-6.95 10.6 -6.35 11.05 L-7.05 10.55" fill="#21100a" fill-rule="evenodd" stroke="none"/>
      <path d="M-7.25 9.55 L-7.55 8.45 Q-7.8 7.25 -7.35 7.05 L-6.8 7.6 -7.25 9.55" fill="#21100a" fill-rule="evenodd" stroke="none"/>
      <path d="M2.95 -1.95 Q4.9 -1.25 5.55 0.05 L-0.25 -0.05 Q-5.75 -0.45 -4.1 -1.65 L-2.8 -2.2 1.15 -2.45 2.95 -1.95" fill="#965112" fill-rule="evenodd" stroke="none"/>
      <path d="M1.95 6.6 L2.2 6.55 Q3.5 6.3 6.15 1.75 6.8 2.75 6.0 4.25 L3.2 7.45 Q0.25 12.55 -4.6 11.3 -5.3 11.1 -5.2 10.05 L-5.0 9.05 Q-3.35 10.3 -0.6 9.05 -1.0 10.0 -0.45 8.85 L1.95 6.6" fill="#965112" fill-rule="evenodd" stroke="none"/>
      <path d="M1.2 8.8 L-0.55 9.8 -1.3 9.75 -0.45 8.85 0.2 7.7 Q1.2 6.35 3.45 5.6 L4.5 5.05 1.2 8.8" fill="#965112" fill-rule="evenodd" stroke="none"/>
      <path d="M-7.55 8.25 L-7.2 10.25 -10.35 10.1 -11.05 9.2 Q-9.7 9.95 -7.55 8.25" fill="#965112" fill-rule="evenodd" stroke="none"/>
      <path d="M1.75 11.0 Q0.25 9.55 -1.6 8.45 -5.3 6.2 -6.8 7.85 L-8.25 6.7 Q-9.85 5.6 -10.85 6.05 L-10.85 4.95 Q-10.7 3.8 -9.85 3.75 L-8.7 3.6 Q-7.2 3.75 -5.75 4.8 L-2.75 4.35 Q0.8 4.75 3.7 8.8 3.45 10.45 1.75 11.0" fill="#660203" fill-rule="evenodd" stroke="none"/>
      <path d="M1.8 10.7 Q0.65 9.25 -1.05 8.1 -4.35 5.85 -6.75 7.35 L-8.1 6.3 Q-9.7 5.3 -10.55 5.7 L-9.45 4.05 -8.0 4.2 Q-6.45 4.45 -5.85 5.2 L-2.85 4.85 Q0.65 5.3 3.25 8.85 3.4 10.2 1.8 10.7" fill="#cc0303" fill-rule="evenodd" stroke="none"/>
      <path d="M-10.85 5.8 L-10.0 5.95 -10.6 6.35 -10.85 5.8" fill="#660203" fill-rule="evenodd" stroke="none"/>
      <path d="M3.2 8.95 Q2.95 10.3 1.8 10.5 -1.7 7.35 -3.1 6.85 L1.75 7.1 3.2 8.95" fill="#51031f" fill-rule="evenodd" stroke="none"/>
      <path d="M-5.85 5.1 L-6.75 7.3 -8.3 6.25 -9.3 5.75 -7.8 5.8 Q-7.45 6.35 -5.85 5.1" fill="#51031f" fill-rule="evenodd" stroke="none"/>
      <path d="M-7.05 5.1 Q-8.3 4.35 -9.35 4.6 L-10.2 5.05 -10.0 4.75 -9.1 4.25 Q-7.6 4.1 -7.05 5.1" fill="#ffffff" fill-rule="evenodd" stroke="none"/>
      <path d="M-5.6 5.6 L-4.35 5.2 Q-2.95 4.8 -1.85 5.2 L-1.5 5.75 -5.6 5.6" fill="#ffffff" fill-rule="evenodd" stroke="none"/>
    </g>
  </defs>
</svg>
